flaticon/household/flower.svg

<svg xmlns="http://www.w3.org/2000/svg" width="32" height="32" viewBox="0 0 24 24">
    <path d="M 6.125 13.671875 L 7.742188 21.75 C 7.859375 22.335938 8.375 22.761719 8.972656 22.761719 L 15.027344 22.761719 C 15.625 22.761719 16.140625 22.335938 16.257812 21.75 L 17.875 13.671875 L 12.414062 13.671875 L 12.414062 10.332031 C 13.8125 10.128906 14.890625 8.925781 14.890625 7.472656 C 14.890625 7.242188 14.707031 7.058594 14.480469 7.058594 C 13.667969 7.058594 12.9375 7.394531 12.414062 7.929688 L 12.414062 6.222656 C 13.570312 6.117188 14.480469 5.144531 14.480469 3.960938 L 14.480469 1.808594 L 14.464844 1.203125 L 12.414062 1.929688 L 12.414062 1.054688 L 10.074219 0.230469 L 9.539062 0 L 9.519531 3.960938 C 9.519531 5.144531 10.429688 6.117188 11.585938 6.222656 L 11.585938 10.824219 C 11.0625 10.285156 10.328125 9.949219 9.519531 9.949219 C 9.292969 9.949219 9.109375 10.136719 9.109375 10.363281 C 9.109375 11.820312 10.1875 13.023438 11.585938 13.222656 L 11.585938 13.671875 Z M 13.652344 2.367188 L 13.652344 3.960938 C 13.652344 4.6875 13.113281 5.289062 12.414062 5.390625 L 12.414062 2.804688 Z M 10.347656 3.960938 L 10.347656 1.203125 L 11.585938 1.640625 L 11.585938 5.390625 C 10.886719 5.289062 10.347656 4.6875 10.347656 3.960938 Z M 14.007812 7.945312 C 13.828125 8.703125 13.230469 9.300781 12.472656 9.476562 C 12.652344 8.71875 13.246094 8.125 14.007812 7.945312 Z M 9.992188 10.835938 C 10.75 11.015625 11.347656 11.613281 11.527344 12.371094 C 10.769531 12.191406 10.171875 11.59375 9.992188 10.835938 Z M 15.027344 21.933594 L 8.972656 21.933594 C 8.769531 21.933594 8.589844 21.789062 8.550781 21.589844 L 8.207031 19.867188 L 15.792969 19.867188 L 15.449219 21.589844 C 15.410156 21.789062 15.230469 21.933594 15.027344 21.933594 Z M 15.957031 19.042969 L 8.042969 19.042969 L 7.132812 14.496094 L 16.867188 14.496094 Z M 15.957031 19.042969"/>
    <path d="M 18.492188 22.054688 C 18.328125 21.894531 18.066406 21.894531 17.90625 22.054688 L 16.789062 23.171875 L 7.210938 23.171875 L 6.09375 22.054688 C 5.933594 21.894531 5.671875 21.894531 5.511719 22.054688 C 5.347656 22.214844 5.347656 22.476562 5.511719 22.640625 L 6.75 23.878906 C 6.789062 23.917969 6.832031 23.945312 6.882812 23.96875 C 6.933594 23.988281 6.988281 24 7.042969 24 L 16.957031 24 C 17.011719 24 17.066406 23.988281 17.117188 23.96875 C 17.167969 23.945312 17.210938 23.917969 17.25 23.878906 L 18.492188 22.640625 C 18.652344 22.476562 18.652344 22.214844 18.492188 22.054688 Z M 18.492188 22.054688"/>
</svg>

<svg xmlns="http://www.w3.org/2000/svg" width="32" height="32" viewBox="0 0 24 24">
    <path d="M6.125 13.672l1.617 8.078a1.258 1.258 0 0 0 1.23 1.012h6.055c.598 0 1.114-.426 1.23-1.012l1.618-8.078h-5.46v-3.34a2.895 2.895 0 0 0 2.476-2.86.411.411 0 0 0-.41-.413c-.813 0-1.543.336-2.067.87V6.224A2.275 2.275 0 0 0 14.48 3.96V1.809l-.015-.606-2.05.727v-.875L10.074.23 9.538 0l-.02 3.96c0 1.185.91 2.157 2.067 2.263v4.601A2.876 2.876 0 0 0 9.52 9.95a.413.413 0 0 0-.41.414 2.889 2.889 0 0 0 2.476 2.86v.449zm7.527-11.305v1.594c0 .727-.539 1.328-1.238 1.43V2.805zm-3.304 1.594V1.203l1.238.438v3.75a1.447 1.447 0 0 1-1.238-1.43zm3.66 3.984a2.064 2.064 0 0 1-1.535 1.532 2.064 2.064 0 0 1 1.535-1.532zm-4.016 2.89c.758.18 1.356.778 1.535 1.536a2.075 2.075 0 0 1-1.535-1.535zm5.035 11.099H8.973a.43.43 0 0 1-.422-.344l-.344-1.723h7.586l-.344 1.723a.43.43 0 0 1-.422.344zm.93-2.891H8.043l-.91-4.547h9.734zm0 0"/>
    <path d="M18.492 22.055a.417.417 0 0 0-.586 0l-1.117 1.117H7.211l-1.117-1.117a.413.413 0 1 0-.582.586l1.238 1.238c.04.039.082.066.133.09a.45.45 0 0 0 .16.031h9.914a.45.45 0 0 0 .16-.031.443.443 0 0 0 .133-.09l1.242-1.238a.417.417 0 0 0 0-.586zm0 0"/>
</svg>
